X:1
T:The Beggar Man
B:Baring-Gould, 1895, <I>A Garland of Country Song,</I> London
Z:S Baring-Gould
F:http://www.folkinfo.org/songs
M:6/8     %Meter
L:1/8     %
K:D
F |d2 d c2 d |B2 A F2 A |d2 d c2 d | B3-B2
w:'Tis of a rag-ged Beg-gar-man Came trip-ping o'er the plain;_
 A |d2 d c2 d |B2 A (FG) A |B2 B B2 A | F6 |
w: He came un-to a farm-er's door_ A lodg-ing good to  gain
F2 D A3 |B2 G d3 |d2 B A2 F | E2 D HE2  |]
w: Rom-be-low Zin-ga-ree, Rom-be-low, 'be-low, 'be-low 
